public/logo.svg

<svg version="1.1" id="Layer_1" xmlns="http://www.w3.org/2000/svg" xmlns:xlink="http://www.w3.org/1999/xlink" x="0px" y="0px"
	 width="100%" viewBox="0 0 61 61" enable-background="new 0 0 61 61" xml:space="preserve">
<path fill="#FEF6F6" opacity="1.000000" stroke="none" 
	d="
M62.000000,39.000000 
	C62.000000,46.594551 62.000000,54.189106 62.000000,62.000000 
	C54.313808,62.000000 46.625599,62.000000 38.606441,61.673195 
	C45.653233,58.315029 52.755814,54.934475 56.661968,46.953743 
	C58.648411,44.202885 60.324207,41.601444 62.000000,39.000000 
z"/>
<path fill="#FEF8F9" opacity="1.000000" stroke="none" 
	d="
M24.000000,62.000000 
	C16.407047,62.000000 8.814094,62.000000 1.000000,62.000000 
	C1.000000,54.647297 1.000000,47.292385 1.316936,39.629753 
	C3.775429,46.229431 7.795744,51.757004 13.872111,56.127640 
	C15.999986,57.547340 18.027180,58.687893 20.363281,59.978325 
	C21.781460,60.752136 22.890730,61.376068 24.000000,62.000000 
z"/>
<path fill="#FEF8F8" opacity="1.000000" stroke="none" 
	d="
M39.000000,1.000000 
	C46.592957,1.000000 54.185909,1.000000 62.000000,1.000000 
	C62.000000,8.352704 62.000000,15.707616 61.679119,23.453716 
	C60.858646,22.906351 60.359055,21.967798 59.889732,20.666271 
	C57.466797,14.276093 54.113403,9.004774 47.842796,5.954841 
	C47.713505,5.835218 47.368176,5.765555 47.212929,5.496959 
	C46.353142,4.892803 45.648602,4.557242 44.693443,4.094883 
	C44.078217,3.892343 43.713612,3.816601 43.191147,3.444344 
	C41.688862,2.431885 40.344433,1.715942 39.000000,1.000000 
z"/>
<path fill="#FFF8F9" opacity="1.000000" stroke="none" 
	d="
M1.000000,24.000000 
	C1.000000,16.408718 1.000000,8.817438 1.000000,1.000000 
	C8.019200,1.000000 15.040817,1.000000 22.376076,1.322491 
	C14.238950,4.997274 7.150829,9.857491 3.460154,18.990730 
	C2.459531,20.802900 1.729766,22.401449 1.000000,24.000000 
z"/>
<path fill="#FA767B" opacity="1.000000" stroke="none" 
	d="
M3.731011,18.777113 
	C7.150829,9.857491 14.238950,4.997274 22.844856,1.322491 
	C24.388889,1.000000 25.777779,1.000000 27.603697,1.340175 
	C28.646185,2.855581 29.251644,4.030812 29.463495,5.062219 
	C25.148252,6.063984 20.480570,6.248478 17.478558,8.578775 
	C12.891900,12.139146 9.455409,17.181223 5.370075,21.197021 
	C4.716688,20.125565 4.223849,19.451340 3.731011,18.777113 
z"/>
<path fill="#F8545E" opacity="1.000000" stroke="none" 
	d="
M24.464651,62.000000 
	C22.890730,61.376068 21.781460,60.752136 20.377506,59.667953 
	C20.391314,58.442711 20.699800,57.677715 21.334162,56.952385 
	C22.074305,57.129490 22.488577,57.266933 22.963524,57.657970 
	C23.670242,57.995750 24.316290,58.079933 25.382521,58.143188 
	C27.719286,57.358276 29.635864,56.594292 31.694128,55.773830 
	C32.069870,59.196987 34.482033,59.519604 37.922630,58.413128 
	C44.533543,56.287102 49.823978,52.407631 54.459324,47.010715 
	C55.342339,47.044659 55.846828,47.073906 56.351322,47.103157 
	C52.755814,54.934475 45.653233,58.315029 38.137749,61.673195 
	C33.643101,62.000000 29.286201,62.000000 24.464651,62.000000 
z"/>
<path fill="#FB585E" opacity="1.000000" stroke="none" 
	d="
M3.460154,18.990730 
	C4.223849,19.451340 4.716688,20.125565 5.278250,21.537258 
	C4.626012,24.349176 3.905052,26.423628 3.135204,28.638746 
	C5.111906,29.476540 6.659053,30.132273 9.517155,31.343632 
	C6.659461,32.483555 5.017493,33.138531 3.308475,33.820251 
	C4.749942,41.707333 8.331956,48.307396 14.151445,54.168064 
	C13.942703,55.102169 13.857066,55.475330 13.771429,55.848492 
	C7.795744,51.757004 3.775429,46.229431 1.316936,39.161018 
	C1.000000,34.310745 1.000000,29.621489 1.000000,24.466118 
	C1.729766,22.401449 2.459531,20.802900 3.460154,18.990730 
z"/>
<path fill="#F85C65" opacity="1.000000" stroke="none" 
	d="
M56.661968,46.953743 
	C55.846828,47.073906 55.342339,47.044659 54.529995,46.658321 
	C55.757866,42.240299 57.293587,38.179363 58.754436,34.316406 
	C56.700291,32.978546 55.480274,32.183952 55.397717,32.130184 
	C56.719814,29.435083 57.664845,27.508636 58.708359,25.251930 
	C58.358940,24.260063 57.911030,23.598455 57.327892,22.629984 
	C57.117828,21.883678 57.042995,21.444235 57.329819,21.000225 
	C58.414131,21.006853 59.136795,21.018051 59.859459,21.029247 
	C60.359055,21.967798 60.858646,22.906351 61.679119,23.922451 
	C62.000000,28.689257 62.000000,33.378513 62.000000,38.533886 
	C60.324207,41.601444 58.648411,44.202885 56.661968,46.953743 
z"/>
<path fill="#FD5557" opacity="1.000000" stroke="none" 
	d="
M29.857103,5.206042 
	C29.251644,4.030812 28.646185,2.855581 28.020363,1.340175 
	C30.041666,1.000000 32.083332,1.000000 34.524071,1.322625 
	C34.258381,2.706151 33.593616,3.767051 32.923271,5.179882 
	C32.837570,5.991647 32.757454,6.451481 32.347099,6.931797 
	C31.355156,6.964653 30.693445,6.977029 29.960636,6.697300 
	C29.878725,6.005477 29.867914,5.605760 29.857103,5.206042 
z"/>
<path fill="#F9757B" opacity="1.000000" stroke="none" 
	d="
M32.928848,4.827950 
	C33.593616,3.767051 34.258381,2.706151 34.961571,1.322625 
	C36.066669,1.000000 37.133339,1.000000 38.600006,1.000000 
	C40.344433,1.715942 41.688862,2.431885 42.787201,3.500213 
	C40.641506,4.012537 38.741898,4.172475 36.518982,4.380833 
	C35.106731,4.562152 34.017788,4.695051 32.928848,4.827950 
z"/>
<path fill="#FB7A82" opacity="1.000000" stroke="none" 
	d="
M13.872110,56.127640 
	C13.857066,55.475330 13.942703,55.102169 14.512723,54.189407 
	C17.000834,54.737446 19.004560,55.825085 21.008289,56.912724 
	C20.699800,57.677715 20.391314,58.442711 20.068600,59.518074 
	C18.027180,58.687893 15.999986,57.547340 13.872110,56.127640 
z"/>
<path fill="#F9757B" opacity="1.000000" stroke="none" 
	d="
M59.889732,20.666273 
	C59.136795,21.018051 58.414131,21.006853 57.059357,20.803238 
	C53.125637,16.524940 49.824024,12.439059 46.822037,8.157564 
	C47.405136,7.332787 47.688614,6.703625 47.972092,6.074463 
	C54.113403,9.004774 57.466797,14.276093 59.889732,20.666273 
z"/>
<path fill="#FD5557" opacity="1.000000" stroke="none" 
	d="
M47.842796,5.954841 
	C47.688614,6.703625 47.405136,7.332787 46.520729,8.016798 
	C44.281456,7.249980 42.643116,6.428313 40.800430,5.345409 
	C39.557304,4.851656 38.518528,4.619140 37.317192,4.410595 
	C37.154636,4.434567 36.842293,4.332413 36.842293,4.332413 
	C38.741898,4.172475 40.641506,4.012537 42.945057,3.796729 
	C43.713612,3.816601 44.078217,3.892343 44.772480,4.419455 
	C45.857483,5.169068 46.612827,5.467312 47.368176,5.765555 
	C47.368176,5.765555 47.713505,5.835218 47.842796,5.954841 
z"/>
<path fill="#F9757B" opacity="1.000000" stroke="none" 
	d="
M47.212929,5.496959 
	C46.612827,5.467312 45.857483,5.169068 45.023102,4.546253 
	C45.648602,4.557242 46.353142,4.892803 47.212929,5.496959 
z"/>
<path fill="#FEF7F7" opacity="1.000000" stroke="none" 
	d="
M36.518982,4.380833 
	C36.842293,4.332413 37.154636,4.434567 37.510197,4.683820 
	C38.912094,5.157598 39.958435,5.382123 41.004772,5.606647 
	C42.643116,6.428313 44.281456,7.249980 46.221107,8.212414 
	C49.824024,12.439059 53.125637,16.524940 56.697708,20.807806 
	C57.042995,21.444235 57.117828,21.883678 57.264515,22.936390 
	C57.760872,24.227169 58.185375,24.904680 58.609871,25.582191 
	C57.664845,27.508636 56.719814,29.435083 55.397717,32.130184 
	C55.480274,32.183952 56.700291,32.978546 58.754436,34.316406 
	C57.293587,38.179363 55.757866,42.240299 54.151474,46.653629 
	C49.823978,52.407631 44.533543,56.287102 37.922630,58.413128 
	C34.482033,59.519604 32.069870,59.196987 31.694128,55.773830 
	C29.635864,56.594292 27.719286,57.358276 25.225880,57.879242 
	C24.066984,57.558945 23.484915,57.481663 22.902847,57.404381 
	C22.488577,57.266933 22.074305,57.129490 21.334162,56.952385 
	C19.004560,55.825085 17.000834,54.737446 14.635828,53.628464 
	C8.331956,48.307396 4.749942,41.707333 3.308475,33.820251 
	C5.017493,33.138531 6.659461,32.483555 9.517155,31.343632 
	C6.659053,30.132273 5.111906,29.476540 3.135204,28.638746 
	C3.905052,26.423628 4.626012,24.349176 5.438798,21.934488 
	C9.455409,17.181223 12.891900,12.139146 17.478558,8.578775 
	C20.480570,6.248478 25.148252,6.063984 29.463497,5.062219 
	C29.867914,5.605760 29.878725,6.005477 29.939156,6.999128 
	C30.884962,7.365813 31.781147,7.138565 32.677334,6.911316 
	C32.757454,6.451481 32.837570,5.991647 32.923271,5.179881 
	C34.017788,4.695051 35.106731,4.562152 36.518982,4.380833 
M26.180534,26.143831 
	C23.161057,32.046139 20.008791,37.886982 17.225931,43.898815 
	C16.615696,45.217113 17.320400,47.144085 17.419550,48.790752 
	C19.072447,48.541336 21.088892,48.808121 22.311188,47.947289 
	C26.234037,45.184525 30.091679,42.239906 33.525352,38.903267 
	C35.807434,36.685680 37.321758,33.678005 39.757812,30.690214 
	C41.780617,26.704033 43.991756,22.797083 45.720692,18.687275 
	C46.299919,17.310410 45.649307,15.416168 45.560848,13.758416 
	C43.891834,13.966720 41.797188,13.606982 40.628334,14.482795 
	C35.861355,18.054655 31.377632,22.004549 26.180534,26.143831 
z"/>
<path fill="#FB7A82" opacity="1.000000" stroke="none" 
	d="
M22.963522,57.657974 
	C23.484915,57.481663 24.066984,57.558945 24.805695,57.900169 
	C24.316290,58.079933 23.670242,57.995750 22.963522,57.657974 
z"/>
<path fill="#F9757B" opacity="1.000000" stroke="none" 
	d="
M58.708363,25.251930 
	C58.185375,24.904680 57.760872,24.227169 57.399746,23.243252 
	C57.911030,23.598455 58.358940,24.260063 58.708363,25.251930 
z"/>
<path fill="#F9757B" opacity="1.000000" stroke="none" 
	d="
M32.347099,6.931797 
	C31.781147,7.138565 30.884962,7.365813 30.010256,7.291233 
	C30.693445,6.977029 31.355156,6.964653 32.347099,6.931797 
z"/>
<path fill="#F9757B" opacity="1.000000" stroke="none" 
	d="
M40.800430,5.345410 
	C39.958435,5.382123 38.912094,5.157598 37.672752,4.659848 
	C38.518528,4.619140 39.557304,4.851656 40.800430,5.345410 
z"/>
<path fill="#FC545B" opacity="1.000000" stroke="none" 
	d="
M39.179737,31.023979 
	C37.321758,33.678005 35.807434,36.685680 33.525352,38.903267 
	C30.091679,42.239906 26.234037,45.184525 22.311188,47.947289 
	C21.088892,48.808121 19.072447,48.541336 17.419550,48.790752 
	C17.320400,47.144085 16.615696,45.217113 17.225931,43.898815 
	C20.008791,37.886982 23.161057,32.046139 26.750893,26.162981 
	C28.038712,27.133291 28.756170,28.084450 29.693623,29.331226 
	C31.986074,30.405939 32.930038,36.222641 36.688164,31.055386 
	C37.755821,31.038673 38.467777,31.031326 39.179737,31.023979 
z"/>
<path fill="#FC737C" opacity="1.000000" stroke="none" 
	d="
M39.468773,30.857098 
	C38.467777,31.031326 37.755821,31.038673 36.726707,30.712713 
	C37.967968,26.875324 39.526386,23.371241 41.084805,19.867157 
	C40.629093,19.521887 40.173378,19.176617 39.717667,18.831347 
	C36.302986,22.232767 32.888306,25.634190 29.473629,29.035610 
	C28.756170,28.084450 28.038712,27.133291 27.055401,25.998646 
	C31.377632,22.004549 35.861355,18.054655 40.628334,14.482795 
	C41.797188,13.606982 43.891834,13.966720 45.560848,13.758416 
	C45.649307,15.416168 46.299919,17.310410 45.720692,18.687275 
	C43.991756,22.797083 41.780617,26.704033 39.468773,30.857098 
z"/>
<path fill="#FEEDEE" opacity="1.000000" stroke="none" 
	d="
M29.693623,29.331226 
	C32.888306,25.634190 36.302986,22.232767 39.717667,18.831347 
	C40.173378,19.176617 40.629093,19.521887 41.084805,19.867157 
	C39.526386,23.371241 37.967968,26.875324 36.371006,30.722080 
	C32.930038,36.222641 31.986074,30.405939 29.693623,29.331226 
z"/>
</svg>

<svg version="1.2" xmlns="http://www.w3.org/2000/svg" viewBox="0 0 61 61" width="61" height="61">
	<title>logo-svg</title>
	<style>
		.s0 { fill: #34d8c8 } 
		.s1 { fill: #1ec6b6 } 
		.s2 { fill: #ffffff } 
		.s3 { fill: #2bd8c9 } 
		.s4 { fill: #eefffc } 
	</style>
	<path id="Layer" class="s0" d="m3.7 18.8c3.5-8.9 10.5-13.8 19.1-17.5 1.6-0.3 3-0.3 4.8 0 1 1.6 1.7 2.7 1.9 3.8-4.4 1-9 1.1-12 3.5-4.6 3.5-8 8.6-12.1 12.6-0.7-1.1-1.2-1.7-1.7-2.4z"/>
	<path id="Layer" class="s1" d="m24.5 62c-1.6-0.6-2.7-1.2-4.1-2.3 0-1.3 0.3-2 0.9-2.7 0.8 0.1 1.2 0.3 1.7 0.7 0.7 0.3 1.3 0.4 2.4 0.4 2.3-0.7 4.2-1.5 6.3-2.3 0.4 3.4 2.8 3.7 6.2 2.6 6.6-2.1 11.9-6 16.6-11.4 0.8 0 1.3 0.1 1.9 0.1-3.6 7.8-10.7 11.2-18.3 14.6-4.5 0.3-8.8 0.3-13.6 0.3z"/>
	<path id="Layer" class="s1" d="m3.5 19c0.7 0.5 1.2 1.1 1.8 2.5-0.7 2.8-1.4 4.9-2.2 7.1 2 0.9 3.6 1.5 6.4 2.7-2.8 1.2-4.5 1.8-6.2 2.5 1.4 7.9 5 14.5 10.9 20.4-0.3 0.9-0.3 1.3-0.4 1.6-6-4-10-9.6-12.5-16.6-0.3-4.9-0.3-9.6-0.3-14.7 0.7-2.1 1.5-3.7 2.5-5.5z"/>
	<path id="Layer" class="s1" d="m56.7 47c-0.9 0.1-1.4 0-2.2-0.3 1.3-4.5 2.8-8.5 4.3-12.4-2.1-1.3-3.3-2.1-3.4-2.2 1.3-2.7 2.3-4.6 3.3-6.8-0.3-1-0.8-1.7-1.4-2.7-0.2-0.7-0.3-1.2 0-1.6 1.1 0 1.8 0 2.6 0 0.5 1 1 1.9 1.8 2.9 0.3 4.8 0.3 9.5 0.3 14.6-1.7 3.1-3.4 5.7-5.3 8.5z"/>
	<path id="Layer" class="s1" d="m29.9 5.2c-0.6-1.2-1.3-2.3-1.9-3.9 2-0.3 4.1-0.3 6.5 0-0.2 1.4-0.9 2.5-1.6 3.9-0.1 0.8-0.1 1.3-0.6 1.7-0.9 0.1-1.6 0.1-2.3-0.2-0.1-0.7-0.1-1.1-0.1-1.5z"/>
	<path id="Layer" class="s0" d="m32.9 4.8c0.7-1 1.4-2.1 2.1-3.5 1.1-0.3 2.1-0.3 3.6-0.3 1.7 0.7 3.1 1.4 4.2 2.5-2.2 0.5-4.1 0.7-6.3 0.9-1.4 0.2-2.5 0.3-3.6 0.4z"/>
	<path id="Layer" class="s0" d="m13.9 56.1c0-0.6 0-1 0.6-1.9 2.5 0.5 4.5 1.6 6.5 2.7-0.3 0.8-0.6 1.5-0.9 2.6-2.1-0.8-4.1-2-6.2-3.4z"/>
	<path id="Layer" class="s0" d="m59.9 20.7c-0.8 0.3-1.5 0.3-2.8 0.1-4-4.3-7.3-8.4-10.3-12.6 0.6-0.9 0.9-1.5 1.2-2.1 6.1 2.9 9.5 8.2 11.9 14.6z"/>
	<path id="Layer" class="s1" d="m47.8 6c-0.1 0.7-0.4 1.3-1.3 2-2.2-0.8-3.9-1.6-5.7-2.7-1.2-0.4-2.3-0.7-3.5-0.9-0.1 0-0.5-0.1-0.5-0.1 1.9-0.1 3.8-0.3 6.1-0.5 0.8 0 1.2 0.1 1.9 0.6 1.1 0.8 1.8 1.1 2.6 1.4 0 0 0.3 0 0.4 0.2z"/>
	<path id="Layer" class="s0" d="m47.2 5.5c-0.6 0-1.3-0.3-2.2-1 0.6 0.1 1.4 0.4 2.2 1z"/>
	<path id="Layer" fill-rule="evenodd" class="s2" d="m36.5 4.4q0.5-0.1 1 0.3c1.4 0.5 2.5 0.7 3.5 0.9 1.6 0.8 3.3 1.6 5.2 2.6 3.6 4.2 6.9 8.3 10.5 12.6 0.3 0.6 0.4 1.1 0.6 2.1 0.5 1.3 0.9 2 1.3 2.7-0.9 1.9-1.9 3.8-3.2 6.5 0.1 0.1 1.3 0.9 3.4 2.2-1.5 3.9-3 7.9-4.6 12.4-4.4 5.7-9.7 9.6-16.3 11.7-3.4 1.1-5.8 0.8-6.2-2.6-2.1 0.8-4 1.6-6.5 2.1-1.1-0.3-1.7-0.4-2.3-0.5-0.4-0.1-0.8-0.3-1.6-0.4-2.3-1.2-4.3-2.3-6.7-3.4-6.3-5.3-9.9-11.9-11.3-19.8 1.7-0.7 3.4-1.3 6.2-2.5-2.8-1.2-4.4-1.8-6.4-2.7 0.8-2.2 1.5-4.3 2.3-6.7 4.1-4.7 7.5-9.8 12.1-13.3 3-2.4 7.6-2.5 12-3.5 0.4 0.5 0.4 0.9 0.4 1.9 1 0.4 1.9 0.1 2.8-0.1 0.1-0.4 0.1-0.9 0.2-1.7 1.1-0.5 2.2-0.6 3.6-0.8zm-10.3 21.7c-3 5.9-6.2 11.8-9 17.8-0.6 1.3 0.1 3.2 0.2 4.9 1.7-0.3 3.7 0 4.9-0.9 3.9-2.7 7.8-5.7 11.2-9 2.3-2.2 3.8-5.2 6.3-8.2 2-4 4.2-7.9 5.9-12 0.6-1.4-0.1-3.3-0.1-4.9-1.7 0.2-3.8-0.2-5 0.7-4.7 3.6-9.2 7.5-14.4 11.6z"/>
	<path id="Layer" class="s0" d="m23 57.7c0.5-0.2 1.1-0.1 1.8 0.2-0.5 0.2-1.1 0.1-1.8-0.2z"/>
	<path id="Layer" class="s0" d="m58.7 25.3q-0.8-0.6-1.3-2.1 0.8 0.6 1.3 2.1z"/>
	<path id="Layer" class="s0" d="m32.3 6.9c-0.5 0.2-1.4 0.5-2.3 0.4 0.7-0.3 1.4-0.3 2.3-0.4z"/>
	<path id="Layer" class="s0" d="m40.8 5.3q-1.3 0.1-3.1-0.6 1.2-0.1 3.1 0.6z"/>
	<path id="Layer" class="s1" d="m39.2 31c-1.9 2.7-3.4 5.7-5.7 7.9-3.4 3.3-7.3 6.3-11.2 9-1.2 0.9-3.2 0.6-4.9 0.9-0.1-1.7-0.8-3.6-0.2-4.9 2.8-6 6-11.9 9.6-17.7 1.2 0.9 2 1.9 2.9 3.1 2.3 1.1 3.2 6.9 7 1.8 1.1-0.1 1.8-0.1 2.5-0.1z"/>
	<path id="Layer" class="s3" d="m39.5 30.9c-1 0.1-1.7 0.1-2.8-0.2 1.3-3.8 2.8-7.3 4.4-10.8q-0.7-0.6-1.4-1.1-5.1 5.1-10.2 10.2c-0.7-0.9-1.5-1.9-2.4-3 4.3-4 8.8-7.9 13.5-11.5 1.2-0.9 3.3-0.5 5-0.7 0 1.6 0.7 3.5 0.1 4.9-1.7 4.1-3.9 8-6.2 12.2z"/>
	<path id="Layer" class="s4" d="m29.7 29.3c3.2-3.7 6.6-7.1 10-10.5q0.7 0.5 1.4 1.1c-1.6 3.5-3.1 7-4.7 10.8-3.5 5.5-4.4-0.3-6.7-1.4z"/>
</svg>
